!!!OTL: 1220. Sommer-Verkuendigung.
!!!ARE: Europa, Mitteleuropa, Deutschland, Rheinpfalz
!!!SCT: E1220
!!!TXL: @@FRK
!!!YEM: Copyright 1995, estate of Helmut Schaffrath.
**kern	**text
*ICvox	*
*M2/4	*
*k[b-]	*
*F:	*
=1	=1
!LO:TX:a:t=Aus der Pfalʒ 1827-30. Stutig. Liederkranʒ II. Lief.	!
{4f	Ri,
4a	ra,
=2	=2
4.cc}	ro!
{8b-	der
=3	=3
8a	Sum-
8a	-mer-
8g	-tag
8g	iſt
=4	=4
4f	do!
4r}	.
=5	=5
{8cc	Wich-
8cc	-ſel,
8a	Wech-
8f	-ſel,
=6	=6
8cc	ʒeig'
8cc	mirs
8a	Kä-
8f}	-tʒel,
=7	=7
{(<4cc	wu-
4a)	-hin?
=8	=8
(<4cc	dort-
4a)}	-hin!
=9	=9
{8f	Uf
8g	der
8a	grü-
8b-/	-nen
=10	=10
4cc	Wie-
4a}	-ſe
=11	=11
{8f	kummt
8g	der
8a	Summer
8b-/	.
=12	=12
4cc	g'ſchli-
4a}	-che.
=13	=13
{4f	[Ra,
4a	ri,
=14	=14
4.cc}	ro,
{8b-	der
=15	=15
8a	Sum-
8a	-mer-
8g	-tag
8g	iſt
=16	=16
4f	do.]
4r}	.
==	==
!!!AGN: Ansinge -, Brauchtums - Lied, Kirchen - Fest, Sommer - Tags - Lied
!!!ONB: ESAC (Essen Associative Code) Database: ERK3
!!!AMT: simple duple
!!!AIN: vox
!!!EED: Helmut Schaffrath
!!!EEV: 1.0
!!!GTL: Ansingelieder an Volks- und Kirchenfesten.
!!!URL-scan: https://rosdok.uni-rostock.de/mcrviewer/recordIdentifier/rosdok_ppn745177999/iview2/phys_0136.iview2?x=-128.77276441889308&y=205.57998617808335&scale=0.5870222003877485&rotation=0&layout=singlePageLayout
!!!ENC: Anna Maria Matuszewska
!!!EEV: 2024/12/27
*-	*-
